symbolic/22x22/apps/etherwall.svg

<svg xmlns="http://www.w3.org/2000/svg" width="22" height="22" version="1">
 <path style="opacity:0.2;fill-rule:evenodd" d="M 3.0003119,1.4998684 A 2.0002,2.0002 0 0 0 1.1087103,4.1502588 L 6.6087104,20.150259 a 2.0002,2.0002 0 0 0 3.3623042,0.705078 l 7.1972664,-7.8125 A 2.0002,2.0002 0 0 0 17.55207,12.435415 L 20.854804,4.2479153 A 2.0002,2.0002 0 0 0 19.000312,1.4998684 l -7.670898,0 -8.3291021,0 z"/>
 <path style="fill:#4f4f4f;fill-rule:evenodd" d="M 3.0003119,1.0000003 A 2.0002,2.0002 0 0 0 1.1087103,3.6503909 L 6.6087104,19.650391 a 2.0002,2.0002 0 0 0 3.3623042,0.705078 l 7.1972664,-7.8125 A 2.0002,2.0002 0 0 0 17.55207,11.935547 L 20.854804,3.7480472 A 2.0002,2.0002 0 0 0 19.000312,1.0000003 l -7.670898,0 -8.3291021,0 z"/>
 <path style="opacity:0.2" d="m 3.0003119,3.5 c 0.2358533,0.8033938 4.898982,14.2588 5.541992,16 l 2.4576311,-2.639 0,-13.361 z m 9.7089851,0 c -0.03299,0.331487 -0.197588,2.8256618 -0.384766,5.8300782 -0.199236,3.1981328 -0.379999,6.0111148 -0.401367,6.2509758 -0.0092,0.103067 -0.01355,0.181586 -0.01465,0.244141 l 1.319336,-1.44043 C 13.631941,12.671677 15.387939,4.4112348 15.538397,3.5 Z m 3.611328,0 C 16.114719,4.2791133 14.10903,12.531924 13.83625,13.719726 l 0.736328,-0.803711 C 15.133507,11.278175 17.339772,4.3597168 17.571601,3.5 Z m 1.888672,0 c -0.260592,0.6453583 -2.718675,7.804507 -2.993164,8.713867 L 15.697578,11.6875 C 16.452964,9.9363112 18.804925,4.1231698 19.000312,3.5 Z"/>
 <path style="fill:#feab07" d="M 3.0003119,3.0000003 C 3.2361652,3.8033939 7.8992939,17.2588 8.5423039,19 l 2.4576311,-2.639 0,-13.3609997 z m 9.7089851,0 c -0.03299,0.3314869 -0.197588,2.825662 -0.384766,5.830078 -0.199236,3.1981337 -0.379999,6.0111147 -0.401367,6.2509767 -0.0092,0.103066 -0.01355,0.181586 -0.01465,0.244141 l 1.319336,-1.44043 c 0.404093,-1.713088 2.16009,-9.973531 2.310548,-10.8847657 z m 3.611328,0 C 16.114719,3.7791134 14.10903,12.031924 13.83625,13.219727 l 0.736328,-0.803711 c 0.560929,-1.63784 2.767194,-8.5562989 2.999023,-9.4160157 z m 1.888672,0 C 17.948705,3.6453587 15.490622,10.804507 15.216133,11.713867 L 15.697578,11.1875 c 0.755386,-1.7511888 3.107347,-7.5643301 3.302734,-8.1874997 z"/>
 <path style="opacity:0.2;fill:#ffffff" d="m 3.0003119,3.0000003 c 0.011368,0.038724 0.1379512,0.4052155 0.1689453,0.5 l 7.8306778,0 0,-0.5 z m 9.7089851,0 c -0.03299,0.3314869 -0.197588,2.825662 -0.384766,5.830078 -0.199236,3.1981337 -0.379999,6.0111147 -0.401367,6.2509767 -0.0092,0.103066 -0.01355,0.181586 -0.01465,0.244141 l 0.03321,-0.03613 c 0.03427,-0.453257 0.192882,-2.910234 0.382813,-5.9589848 0.187177,-3.0044139 0.351775,-5.498589 0.384765,-5.8300759 l 2.729492,0 c 0.02402,-0.1249164 0.08941,-0.4382521 0.09961,-0.5 z m 3.611328,0 C 16.114719,3.7791134 14.10903,12.031924 13.83625,13.219727 l 0.165039,-0.180664 c 0.455422,-1.926825 2.127142,-8.8118332 2.319336,-9.5390627 l 1.098633,0 c 0.04037,-0.1353255 0.134267,-0.4329672 0.152343,-0.5 z m 1.888672,0 c -0.260592,0.6453584 -2.718675,7.8045067 -2.993164,8.7138667 l 0.266601,-0.291992 C 16.054885,9.6731692 17.97186,4.0880153 18.209297,3.5000003 l 0.601562,0 c 0.05558,-0.1483154 0.170612,-0.4399081 0.189453,-0.5 z"/>
 <path style="opacity:0.1;fill:#ffffff;fill-rule:evenodd" d="M 3.0003119,1.0000003 A 2.0002,2.0002 0 0 0 1.0169134,3.2597659 2.0002,2.0002 0 0 1 3.0003119,1.5000003 l 8.3291021,0 7.670898,0 a 2.0002,2.0002 0 0 1 1.982422,1.7412109 2.0002,2.0002 0 0 0 -1.982422,-2.2412109 l -7.670898,0 -8.3291021,0 z"/>
</svg>

<svg xmlns="http://www.w3.org/2000/svg" width="22" height="22" version="1"><path style="opacity:.2;fill-rule:evenodd" d="M3 1.5A2 2 0 0 0 1.11 4.15l5.5 16a2 2 0 0 0 3.362.705l7.197-7.812a2 2 0 0 0 .384-.608l3.303-8.187A2 2 0 0 0 19 1.5H3z"/><path style="fill:#4f4f4f;fill-rule:evenodd" d="M3 1A2 2 0 0 0 1.11 3.65l5.5 16a2 2 0 0 0 3.362.705l7.197-7.812a2 2 0 0 0 .384-.607l3.303-8.188A2 2 0 0 0 19 1H3z"/><path style="opacity:.2" d="M3 3.5c.236.803 4.9 14.259 5.542 16L11 16.861V3.5zm9.71 0c-.034.331-.198 2.826-.385 5.83a948.39 948.39 0 0 1-.416 6.495l1.319-1.44c.404-1.713 2.16-9.974 2.31-10.885zm3.61 0c-.205.78-2.211 9.032-2.484 10.22l.737-.804c.56-1.638 2.767-8.556 2.999-9.416zm1.89 0c-.261.645-2.72 7.805-2.994 8.714l.482-.527C16.453 9.938 18.805 4.123 19 3.5z"/><path style="fill:#feab07" d="M3 3c.236.803 4.9 14.259 5.542 16L11 16.361V3zm9.71 0c-.034.331-.198 2.826-.385 5.83a948.393 948.393 0 0 1-.416 6.495l1.319-1.44c.404-1.713 2.16-9.974 2.31-10.885zm3.61 0c-.205.78-2.211 9.032-2.484 10.22l.737-.804c.56-1.638 2.767-8.556 2.999-9.416zm1.89 0c-.261.645-2.72 7.805-2.994 8.714l.482-.527C16.453 9.438 18.805 3.623 19 3z"/><path style="opacity:.2;fill:#fff" d="M3 3c.012.039.138.405.17.5H11V3zm9.71 0c-.034.331-.198 2.826-.385 5.83a948.393 948.393 0 0 1-.416 6.495l.033-.036c.034-.453.193-2.91.383-5.959.187-3.004.351-5.499.384-5.83h2.73c.024-.125.09-.438.1-.5zm3.61 0c-.205.78-2.211 9.032-2.484 10.22l.165-.18c.456-1.928 2.127-8.813 2.32-9.54h1.098c.04-.135.135-.433.153-.5zm1.89 0c-.261.645-2.72 7.805-2.994 8.714l.267-.292c.572-1.749 2.489-7.334 2.726-7.922h.602c.055-.148.17-.44.19-.5z"/><path style="opacity:.1;fill:#fff;fill-rule:evenodd" d="M3 1a2 2 0 0 0-1.983 2.26A2 2 0 0 1 3 1.5h16a2 2 0 0 1 1.983 1.741A2 2 0 0 0 19 1H3z"/></svg>
